!!!SOCIAL_FUNCTION:	war songs
!!!PDT:	1929
!!!OTL: No_127_Song_Before_Starting_on_the_Warpath.krn
!!!REG: Southwest
!!!LANG: Non-Tone
!!!LING_GROUP: Uto-Aztecan
**kern
*staff1
=1-
*clefF4
*k[f#c#g#]
*M3/4
4c#\
8B\L
8B\J
8B\L
8B\J
=2||
*M2/4
16B\LK
8.B\J
8c#\L
8B\J
=3
8B\L
8A\J
8F#\L
8E\J
=4
16E\LK
8.E\J
4E\
=5
4A\
8F#\L
8D\J
=6||
*M3/8
4F#\
8E\
=7||
*M2/4
4.E\
8E\
=8
2E\
=9||
*M3/4
4c#\
8B\L
8B\J
8B\L
8B\J
=10||
*M2/4
16B\LK
8.B\J
4B\
=11
8B\L
8A\J
8F#\L
8F#\J
=12
16E\LK
8.E\J
8E\
8r
=13
4A\
8F#\L
8D\J
=14||
*M3/8
4F#\
8E\
=15||
*M2/4
4E\
8E\L
8E\J
=16
4.E\
8r
=17
8A\L
8F#\J
8B\L
8B\J
=18
4c#\
8B\L
8B\J
=19||
*M3/4
4B\
4A\
8F#\L
8F#\J
=20||
*M3/8
8E\
8r
8F#\
=21||
*M2/4
4A\
8F#\L
8D\J
=22||
*M3/8
4F#\
8E\
=23||
*M2/4
4.E\
8E\
=24
4.E\
8r
=25
8A\L
8F#\J
8B\L
8B\J
=26
4c#\
8B\L
8B\J
=27||
*M3/4
4B\
4A\
8F#\L
8F#\J
=28||
*M3/8
8E\
8r
8F#\
=29||
*M2/4
4A\
8F#\L
8D\J
=30||
*M3/8
4F#\
8E\
=31||
*M2/4
4.E\
8E\
=32
2E\
==
*-
